X: 98
P: No. XCVIII.
M: 6/8
L: 1/8
K: F
V: 1
[|\
f2c (d/e/f)d | cAF cAF |\
d(B/c/d) {d}cAc | d/e/ff gec |\
c'(a/b/c'/a/) f(a/b/c'/a/) | f(a/b/c'/a/) c'af |
g(e/f/g/e/) c(e/f/g/e/) | c(e/f/g/e/) gec |\
(dB/c/d) {d}cAc | (d/e/f)f gec |\
dcB Acc | f3- f3 |]\
(c/B/A/G/F) Fcc |
(d/c/B/A/G) Gdd | BGG gec |\
c'(a/b/c'/d'/) c'(a/b/c') | d'(b/c'/d'/e'/) d'(b/c'/d') |\
(c'/b/a/g/f) {f}Tece | f3- f3 |]
V: 2 clef=bass middle=d
[|\
f3 d3 | a3 A3 | B3 A3 | d3 c3 | f3 f3 | a3 a3 |
c'3 c3 | e3 e3 | b3 a3 | f2d e2c | B3 c3 | FAc F3 |] f3 a3 |
f3 a3 | g3 b3 | g3 e3 | f3 a3 | b3 B3 | f2a c'2c | fcA F3 |]

